64x64/apps/awf.svg

<svg xmlns="http://www.w3.org/2000/svg" width="64" height="64" version="1">
 <path style="opacity:0.2" d="M 46.289305,5 C 42.536858,5 39.432265,6.5051667 37.078053,8.6503906 35.750524,7.7032813 34.216268,7.0054619 32.677252,7 32.226398,6.9984 31.804745,7.031024 31.409291,7.083984 l -0.002,0 c -1.683615,0.2257036 -3.21641,1.0465182 -4.531449,2.0859379 L 23.672775,9.0097656 c -6.53e-4,-3.28e-5 -0.0013,3.26e-5 -0.002,0 -0.443345,-0.022159 -0.860273,-0.00523 -1.232849,0.03125 -0.860714,0.084294 -1.653489,0.2911459 -2.377915,0.5664063 -2.729654,1.0372821 -5.065103,3.6989291 -5.74484,6.2812501 -0.04927,0.187178 -0.005,0.338209 -0.04292,0.521484 -0.618472,0.188477 -1.226868,0.406711 -1.761491,0.701172 l 0,0.002 c -2.363812,1.302716 -4.4223373,4.366456 -4.5061395,7.117188 -0.083802,2.750731 0.9860919,4.664373 2.0892105,6.130859 0.857892,1.140483 1.873682,2.016059 3.013846,2.78125 -0.268978,0.719914 -0.607835,1.393253 -0.774431,2.177734 -1.370908,6.450305 1.23023,12.464038 5.089402,17.167969 C 21.281873,57.192212 26.889821,61 33.709177,61 c 4.187725,0 7.658744,-1.879571 10.426545,-4.425781 2.198039,-2.022063 4.103741,-4.588377 5.166509,-7.628968 1.043037,-2.416554 0.509441,-5.125687 0.126153,-7.477608 C 48.429598,35.372094 46.917939,28.697662 53.908778,20.498 55.244604,18.178704 56.618575,15.556868 55.703431,11.658156 55.245858,9.7088474 53.786233,7.5747483 51.924906,6.4375 50.063578,5.3002517 48.129266,5 46.289305,5 Z"/>
 <path style="fill:#569c3b" d="M 46.289305,4 C 42.536858,4 39.432265,5.5051667 37.078053,7.6503906 35.750524,6.7032813 34.216268,6.0054619 32.677252,6 32.226398,5.9984 31.804745,6.031024 31.409291,6.083984 l -0.002,0 c -1.683615,0.2257036 -3.21641,1.0465182 -4.531449,2.0859379 L 23.672775,8.0097656 c -6.53e-4,-3.28e-5 -0.0013,3.26e-5 -0.002,0 -0.443345,-0.022159 -0.860273,-0.00523 -1.232849,0.03125 -0.860714,0.084294 -1.653489,0.2911459 -2.377915,0.5664063 -2.729654,1.0372823 -5.065103,3.6989291 -5.74484,6.2812501 -0.04927,0.187178 -0.005,0.338209 -0.04292,0.521484 -0.618472,0.188477 -1.226868,0.406711 -1.761491,0.701172 l 0,0.002 c -2.363812,1.302716 -4.4223373,4.366456 -4.5061395,7.117188 -0.083802,2.750731 0.9860919,4.664373 2.0892105,6.130859 0.857892,1.140483 1.873682,2.016059 3.013846,2.78125 -0.268978,0.719914 -0.607835,1.393253 -0.774431,2.177734 -1.370908,6.450305 1.23023,12.464038 5.089402,17.167969 C 21.281873,56.192212 26.889821,60 33.709177,60 c 4.187725,0 7.658744,-1.879571 10.426545,-4.425781 2.198039,-2.022063 4.103741,-4.588377 5.166509,-7.628968 1.043037,-2.416554 0.509441,-5.125687 0.126153,-7.477608 C 48.429598,34.372094 46.917939,27.697662 53.908778,19.498 55.244604,17.178704 56.618575,14.556868 55.703431,10.658156 55.245858,8.7088474 53.786233,6.5747483 51.924906,5.4375 50.063578,4.3002517 48.129266,4 46.289305,4 Z"/>
 <path style="opacity:0.2" d="m 46.336118,11 c -8.885687,0 -10.55143,13 -5.552735,13 4.997974,0 14.438785,-13 5.552735,-13 z m -13.650391,2 c -0.143399,-5.08e-4 -0.294254,0.01 -0.453125,0.03125 -5.08204,0.680429 -3.295859,9.796407 -0.589844,9.966797 2.620386,0.165068 5.488334,-9.98229 1.042969,-9.998047 z m -9.294922,2.001953 c -0.113577,-0.0057 -0.229883,-0.0021 -0.351563,0.0098 -0.259582,0.02533 -0.53863,0.09225 -0.835937,0.205078 -4.757779,1.805744 -0.721985,9.26075 1.943359,8.759765 2.422623,-0.45428 2.765032,-8.799158 -0.755859,-8.974609 z M 16.783383,22 c -0.42469,-0.01134 -0.886012,0.100148 -1.375,0.369141 -3.910133,2.15224 1.318625,7.353224 3.619141,6.546875 C 21.04048,28.210157 19.756217,22.079701 16.783383,22 Z m 18.578125,4 C 28.618865,25.880207 19.724059,29.434516 18.207211,36.568359 16.564409,44.288409 24.970329,55 33.740414,55 38.054845,55 43.032042,50.608569 43.963071,45.425781 44.303002,43.536422 42.195079,42.851239 39.93768,43 37.473049,43.162417 34.829905,44.30693 35.00018,45.671875 35.266568,47.808333 34.495768,48.96522 32.959164,49 30.861242,48.744789 29.276182,47.782199 29.00018,45.945312 28.624468,41.12182 44.114787,37.684343 42.916196,30.205078 42.477812,27.469543 39.407094,26.071878 35.361508,26 Z"/>
 <path style="fill:#f4f4f7" d="m 46.336118,10 c -8.885687,0 -10.55143,13 -5.552735,13 4.997974,0 14.438785,-13 5.552735,-13 z m -13.650391,2 c -0.143399,-5.08e-4 -0.294254,0.01 -0.453125,0.03125 -5.08204,0.680429 -3.295859,9.796407 -0.589844,9.966797 2.620386,0.165068 5.488334,-9.98229 1.042969,-9.998047 z m -9.294922,2.001953 c -0.113577,-0.0057 -0.229883,-0.0021 -0.351563,0.0098 -0.259582,0.02533 -0.53863,0.09225 -0.835937,0.205078 -4.757779,1.805744 -0.721985,9.26075 1.943359,8.759765 2.422623,-0.45428 2.765032,-8.799158 -0.755859,-8.974609 z M 16.783383,21 c -0.42469,-0.01134 -0.886012,0.100148 -1.375,0.369141 -3.910133,2.15224 1.318625,7.353224 3.619141,6.546875 C 21.04048,27.210157 19.756217,21.079701 16.783383,21 Z m 18.578125,4 C 28.618865,24.880207 19.724059,28.434516 18.207211,35.568359 16.564409,43.288409 24.970329,54 33.740414,54 38.054845,54 43.032042,49.608569 43.963071,44.425781 44.303002,42.536422 42.195079,41.851239 39.93768,42 37.473049,42.162417 34.829905,43.30693 35.00018,44.671875 35.266568,46.808333 34.495768,47.96522 32.959164,48 30.861242,47.744789 29.276182,46.782199 29.00018,44.945312 28.624468,40.12182 44.114787,36.684343 42.916196,29.205078 42.477812,26.469543 39.407094,25.071878 35.361508,25 Z"/>
 <path style="opacity:0.2;fill:#f4f4f7" d="M 46.289062 4 C 42.536616 4 39.432337 5.5051667 37.078125 7.6503906 C 35.750596 6.7032813 34.21675 6.0054619 32.677734 6 C 32.22688 5.9984 31.80561 6.0310244 31.410156 6.0839844 L 31.408203 6.0839844 C 29.724588 6.309688 28.190039 7.1305022 26.875 8.1699219 L 23.671875 8.0097656 C 23.671875 8.0097656 23.669922 8.0097656 23.669922 8.0097656 C 23.226577 7.9876066 22.810076 8.0045356 22.4375 8.0410156 C 21.576786 8.1253096 20.784973 8.3321615 20.060547 8.6074219 C 17.330893 9.6447042 14.99419 12.306351 14.314453 14.888672 C 14.265183 15.07585 14.309404 15.226881 14.271484 15.410156 C 13.653012 15.598633 13.046342 15.816867 12.511719 16.111328 L 12.511719 16.113281 C 10.147907 17.415997 8.0877084 20.479737 8.0039062 23.230469 C 7.9949983 23.522864 8.0056666 23.800272 8.0214844 24.074219 C 8.1756891 21.364191 10.192155 18.391612 12.511719 17.113281 L 12.511719 17.111328 C 13.046342 16.816867 13.653012 16.598633 14.271484 16.410156 C 14.309404 16.226881 14.265183 16.07585 14.314453 15.888672 C 14.99419 13.306351 17.330893 10.644704 20.060547 9.6074219 C 20.784973 9.3321615 21.576786 9.1253096 22.4375 9.0410156 C 22.810076 9.0045356 23.226577 8.9876066 23.669922 9.0097656 C 23.669922 9.0097656 23.671875 9.0097656 23.671875 9.0097656 L 26.875 9.1699219 C 28.190039 8.1305022 29.724588 7.309688 31.408203 7.0839844 L 31.410156 7.0839844 C 31.80561 7.0310244 32.22688 6.9984 32.677734 7 C 34.21675 7.0054619 35.750596 7.7032813 37.078125 8.6503906 C 39.432337 6.5051667 42.536616 5 46.289062 5 C 48.129024 5 50.064453 5.3002517 51.925781 6.4375 C 53.787108 7.5747483 55.245552 9.7088945 55.703125 11.658203 C 55.871524 12.375621 55.940874 13.036812 55.96875 13.673828 C 56.023656 12.753001 55.962089 11.761445 55.703125 10.658203 C 55.245552 8.7088945 53.787108 6.5747483 51.925781 5.4375 C 50.064453 4.3002517 48.129024 4 46.289062 4 z M 12.796875 32.919922 C 12.614189 33.368768 12.43976 33.822225 12.333984 34.320312 C 12.043929 35.685063 11.940607 37.02831 11.980469 38.345703 C 12.009161 37.349847 12.116943 36.341519 12.333984 35.320312 C 12.50058 34.535832 12.838444 33.862492 13.107422 33.142578 C 13.000936 33.071113 12.901164 32.993439 12.796875 32.919922 z M 48.572266 33.519531 C 48.520538 36.312245 49.013764 38.940355 49.427734 41.466797 C 49.618693 42.638553 49.848375 43.899237 49.900391 45.167969 C 49.970254 43.567422 49.66886 41.946382 49.427734 40.466797 C 49.063428 38.243449 48.63555 35.942834 48.572266 33.519531 z"/>
</svg>

<svg xmlns="http://www.w3.org/2000/svg" width="64" height="64" version="1"><path style="opacity:.2" d="M46.29 5c-3.753 0-6.858 1.505-9.212 3.65-1.327-.947-2.862-1.645-4.4-1.65a9.266 9.266 0 0 0-1.269.084h-.002c-1.683.226-3.216 1.047-4.531 2.086l-3.203-.16h-.002a8.388 8.388 0 0 0-1.233.031 9.198 9.198 0 0 0-2.378.566c-2.73 1.038-5.065 3.7-5.745 6.282-.05.187-.005.338-.043.521-.618.189-1.227.407-1.761.701v.002c-2.364 1.303-4.423 4.367-4.506 7.118-.084 2.75.986 4.664 2.089 6.13.858 1.14 1.874 2.016 3.014 2.782-.27.72-.608 1.393-.775 2.177-1.37 6.45 1.23 12.464 5.09 17.168C21.282 57.192 26.89 61 33.709 61c4.188 0 7.659-1.88 10.427-4.426 2.198-2.022 4.103-4.588 5.166-7.629 1.043-2.416.51-5.125.126-7.477-.998-6.096-2.51-12.77 4.48-20.97 1.337-2.32 2.71-4.941 1.795-8.84-.457-1.95-1.917-4.083-3.778-5.22C50.064 5.3 48.129 5 46.289 5z"/><path style="fill:#569c3b" d="M46.29 4c-3.753 0-6.858 1.505-9.212 3.65-1.327-.947-2.862-1.645-4.4-1.65a9.266 9.266 0 0 0-1.269.084h-.002c-1.683.226-3.216 1.047-4.531 2.086l-3.203-.16h-.002a8.388 8.388 0 0 0-1.233.031 9.198 9.198 0 0 0-2.378.566c-2.73 1.038-5.065 3.7-5.745 6.282-.05.187-.005.338-.043.521-.618.189-1.227.407-1.761.701v.002c-2.364 1.303-4.423 4.367-4.506 7.118-.084 2.75.986 4.664 2.089 6.13.858 1.14 1.874 2.016 3.014 2.782-.27.72-.608 1.393-.775 2.177-1.37 6.45 1.23 12.464 5.09 17.168C21.282 56.192 26.89 60 33.709 60c4.188 0 7.659-1.88 10.427-4.426 2.198-2.022 4.103-4.588 5.166-7.629 1.043-2.416.51-5.125.126-7.477-.998-6.096-2.51-12.77 4.48-20.97 1.337-2.32 2.71-4.941 1.795-8.84-.457-1.95-1.917-4.083-3.778-5.22C50.064 4.3 48.129 4 46.289 4z"/><path style="opacity:.2" d="M46.336 11c-8.886 0-10.551 13-5.553 13s14.44-13 5.553-13zm-13.65 2c-.144 0-.295.01-.453.031-5.082.68-3.296 9.797-.59 9.967 2.62.165 5.488-9.982 1.043-9.998zm-9.295 2.002a2.377 2.377 0 0 0-.352.01c-.26.025-.538.092-.836.205-4.757 1.806-.722 9.26 1.944 8.76 2.422-.455 2.765-8.8-.756-8.975zM16.783 22c-.424-.011-.886.1-1.375.37-3.91 2.151 1.319 7.352 3.62 6.546 2.012-.706.728-6.836-2.245-6.916zm18.579 4c-6.743-.12-15.638 3.435-17.155 10.568C16.564 44.288 24.97 55 33.74 55c4.315 0 9.292-4.391 10.223-9.574.34-1.89-1.768-2.575-4.025-2.426-2.465.162-5.108 1.307-4.938 2.672.267 2.136-.504 3.293-2.04 3.328-2.099-.255-3.684-1.218-3.96-3.055-.376-4.823 15.115-8.26 13.916-15.74-.438-2.735-3.509-4.133-7.554-4.205z"/><path style="fill:#f4f4f7" d="M46.336 10c-8.886 0-10.551 13-5.553 13s14.44-13 5.553-13zm-13.65 2c-.144 0-.295.01-.453.031-5.082.68-3.296 9.797-.59 9.967 2.62.165 5.488-9.982 1.043-9.998zm-9.295 2.002a2.377 2.377 0 0 0-.352.01c-.26.025-.538.092-.836.205-4.757 1.806-.722 9.26 1.944 8.76 2.422-.455 2.765-8.8-.756-8.975zM16.783 21c-.424-.011-.886.1-1.375.37-3.91 2.151 1.319 7.352 3.62 6.546 2.012-.706.728-6.836-2.245-6.916zm18.579 4c-6.743-.12-15.638 3.435-17.155 10.568C16.564 43.288 24.97 54 33.74 54c4.315 0 9.292-4.391 10.223-9.574.34-1.89-1.768-2.575-4.025-2.426-2.465.162-5.108 1.307-4.938 2.672.267 2.136-.504 3.293-2.04 3.328-2.099-.255-3.684-1.218-3.96-3.055-.376-4.823 15.115-8.26 13.916-15.74-.438-2.735-3.509-4.133-7.554-4.205z"/><path style="opacity:.2;fill:#f4f4f7" d="M46.29 4c-3.753 0-6.858 1.505-9.212 3.65-1.327-.947-2.861-1.645-4.4-1.65a9.26 9.26 0 0 0-1.268.084h-.002c-1.683.226-3.218 1.047-4.533 2.086l-3.203-.16h-.002a8.382 8.382 0 0 0-1.233.031 9.19 9.19 0 0 0-2.376.566c-2.73 1.038-5.067 3.7-5.747 6.282-.049.187-.005.338-.043.521-.618.189-1.225.407-1.76.701v.002c-2.363 1.303-4.423 4.367-4.507 7.117-.009.293.002.57.017.844.155-2.71 2.171-5.682 4.49-6.96v-.003c.535-.294 1.142-.512 1.76-.7.038-.184-.006-.335.043-.522.68-2.583 3.017-5.244 5.747-6.282a9.19 9.19 0 0 1 2.377-.566c.372-.036.789-.053 1.232-.031h.002l3.203.16c1.315-1.04 2.85-1.86 4.533-2.086h.002A9.26 9.26 0 0 1 32.678 7c1.539.005 3.073.703 4.4 1.65C39.432 6.505 42.537 5 46.29 5c1.84 0 3.775.3 5.637 1.438 1.861 1.137 3.32 3.27 3.777 5.22.169.718.238 1.379.266 2.016.055-.921-.007-1.913-.266-3.016-.457-1.95-1.916-4.083-3.777-5.22C50.064 4.3 48.129 4 46.289 4zM12.796 32.92c-.183.449-.357.902-.463 1.4a16.83 16.83 0 0 0-.354 4.026c.03-.996.137-2.004.354-3.026.167-.784.504-1.458.773-2.177-.106-.072-.206-.15-.31-.223zm35.775.6c-.051 2.792.442 5.42.856 7.947.19 1.172.42 2.432.472 3.701.07-1.6-.231-3.222-.472-4.701-.365-2.224-.792-4.524-.856-6.947z"/></svg>
